Newaita-dark/apps/22/texstudio.svg

<svg height="22" viewBox="0 0 22 22" width="22" xmlns="http://www.w3.org/2000/svg" xmlns:xlink="http://www.w3.org/1999/xlink"><linearGradient id="a" gradientUnits="userSpaceOnUse" x1="10.9151136" x2="10.9151136" y1="19.27333715" y2="20.18293042919"><stop offset="0" stop-opacity=".27451"/><stop offset="1" stop-opacity="0"/></linearGradient><linearGradient id="b"><stop offset="0" stop-opacity=".313726"/><stop offset=".222222" stop-opacity=".27451"/><stop offset="1" stop-opacity="0"/></linearGradient><radialGradient id="c" cx="450.908936" cy="189.579361" gradientTransform="matrix(.00000012 -.0537161 -.0966889 -.00000007 33.565844 43.721791)" gradientUnits="userSpaceOnUse" r="21.166656" xlink:href="#b"/><radialGradient id="d" cx="450.908936" cy="189.579361" gradientTransform="matrix(-.00000012 .0537161 .0966889 .00000007 -12.190429 -5.175142)" gradientUnits="userSpaceOnUse" r="21.166656" xlink:href="#b"/><radialGradient id="e" cx="450.908936" cy="189.579361" gradientTransform="matrix(-.00000012 -.0537161 .0966889 -.00000007 -12.190429 43.721791)" gradientUnits="userSpaceOnUse" r="21.166656" xlink:href="#b"/><radialGradient id="f" cx="450.908936" cy="189.579361" gradientTransform="matrix(.00000012 .0537161 -.0966889 .00000007 33.565842 -5.175142)" gradientUnits="userSpaceOnUse" r="21.166656" xlink:href="#b"/><linearGradient id="g" gradientUnits="userSpaceOnUse" x1="10.687706" x2="10.687706" y1="19.27332401286" y2="1.99107548985"><stop offset="0" stop-color="#616161"/><stop offset="1" stop-color="#757575"/></linearGradient><linearGradient id="h"><stop offset="0" stop-color="#ffa726"/><stop offset="1" stop-color="#ffb74d"/></linearGradient><linearGradient id="i" gradientUnits="userSpaceOnUse" x1="10.687706" x2="10.687706" xlink:href="#h" y1="19.27332401286" y2="1.99107548985"/><linearGradient id="j" gradientTransform="matrix(.00803973 .00803973 -.00803973 .00803973 14.325834 1.339245)" gradientUnits="userSpaceOnUse" x1="1157.781738" x2="614.728943" xlink:href="#h" y1="1072.898926" y2="504.996185"/><path d="m5.914062 19.273438h9.550782v.910156h-9.550782zm0 0" fill="url(#a)"/><path d="m15.464844 19.273438h1.816406v-.910157h-1.816406zm0 0" fill="url(#c)"/><path d="m5.914062 19.273438h-1.820312v.910156h1.820312zm0 0" fill="url(#d)"/><path d="m5.914062 19.273438h-1.820312v-.910157h1.820312zm0 0" fill="url(#e)"/><path d="m15.464844 19.273438h1.816406v.910156h-1.816406zm0 0" fill="url(#f)"/><path d="m5.003906 1.992188c-.503906 0-.910156.40625-.910156.910156v15.460937c0 .503907.40625.910157.910156.910157h11.367188c.503906 0 .910156-.40625.910156-.910157v-12.277343l-4.09375-4.09375zm9.09375 0 3.183594 3.183593v-2.273437c0-.503906-.40625-.910156-.910156-.910156zm0 0" fill="url(#g)"/><path d="m14.097656 1.992188 3.183594 3.183593v-2.273437c0-.503906-.40625-.910156-.910156-.910156zm0 0" fill="url(#i)"/><path d="m5.003906 1.992188c-.503906 0-.910156.40625-.910156.910156v.226562c0-.503906.40625-.910156.910156-.910156h8.183594l4.09375 4.09375v-.226562l-4.09375-4.09375zm9.09375 0 .226563.226562h2.046875c.503906 0 .910156.40625.910156.910156v-.226562c0-.503906-.40625-.910156-.910156-.910156zm0 0" fill="#fff" fill-opacity=".392157"/><path d="m14.097656 1.992188 3.183594 3.183593v-.339843l-2.84375-2.84375zm-10.003906 16.035156v.335937c0 .503907.40625.910157.910156.910157h11.367188c.503906 0 .910156-.40625.910156-.910157v-.335937c0 .503906-.40625.910156-.910156.910156h-11.367188c-.503906 0-.910156-.40625-.910156-.910156zm0 0" fill-opacity=".235294"/><path d="m5.003906 1.925781c-.539062 0-.976562.4375-.976562.976563v15.460937c0 .539063.4375.972657.976562.972657h11.367188c.539062 0 .976562-.433594.976562-.972657v-12.277343c0-.019532-.007812-.035157-.019531-.046876l-4.09375-4.09375c-.011719-.011718-.027344-.019531-.046875-.019531zm9.09375 0c-.023437 0-.046875.015625-.058594.039063-.011718.027344-.003906.054687.015626.070312l3.183593 3.183594c.015625.019531.042969.027344.070313.015625.023437-.011719.039062-.035156.039062-.058594v-2.273437c0-.539063-.4375-.976563-.976562-.976563zm-9.09375.128907h8.160156l4.054688 4.054687v12.253906c0 .46875-.375.84375-.847656.84375h-11.367188c-.46875 0-.847656-.375-.847656-.84375v-15.460937c0-.472656.378906-.847656.847656-.847656zm9.25 0h2.117188c.472656 0 .847656.375.847656.847656v2.117187zm0 0" fill="#212121"/><path d="m17.097656 11.804688c-.230468 0-.464844.089843-.640625.269531l-3.21875 3.214843-.480469.484376 2.25 2.25 3.699219-3.699219c.355469-.355469.355469-.929688 0-1.285157l-.964843-.964843c-.179688-.179688-.410157-.269531-.644532-.269531zm-4.824218 4.449218c-.050782.050782-.089844.117188-.113282.195313l-.644531 2.253906c-.097656.339844.21875.660156.5625.558594l2.25-.640625c.078125-.023438.144531-.0625.199219-.117188zm0 0" fill="url(#j)"/><path d="m17.074219 11.820312c-.230469 0-.464844.089844-.640625.269532l-3.21875 3.214844-.480469.484374.125.121094.355469-.359375 3.21875-3.214843c.011718-.011719.019531-.023438.03125-.03125.011718-.011719.023437-.019532.035156-.03125.019531-.015626.039062-.027344.058594-.042969.015625-.011719.035156-.023438.054687-.035157.027344-.015624.054688-.027343.078125-.042968.097656-.042969.195313-.070313.296875-.078125.03125-.003907.058594-.003907.085938-.003907.03125 0 .058593 0 .089843.003907.101563.007812.199219.035156.292969.078125.027344.015625.054688.027344.082031.042968.019532.011719.035157.023438.054688.035157.019531.015625.039062.027343.054688.042969.011718.011718.023437.019531.035156.03125.011718.007812.023437.019531.035156.03125l.964844.964843c.007812.007813.015625.015625.023437.027344.003907 0 .003907.003906.007813.007813.007812.003906.011718.011718.015625.015624.003906.003907.007812.007813.007812.011719.007813.003907.011719.011719.019531.019531 0 0 0 .003907.003907.003907.007812.011719.011719.019531.019531.027343 0 .003907.003906.003907.003906.007813.003906.007813.011719.015625.015625.023437 0 0 .003907.003907.003907.007813.007812.007813.011718.015625.015624.023437 0 0 .003907.003907.003907.003907.003906.011719.011719.019531.015625.03125.007812.011719.011718.019531.015625.03125.003906 0 .003906.003906.003906.003906.003906.011719.007813.019531.011719.027344 0 0 .003906.003906.003906.007812.003906.007813.007812.019531.011719.027344.003906.011719.007812.023437.011719.035156l.011718.035157c.003906.011718.007813.023437.011719.035156.003906.023437.011719.046875.015625.070312 0 .011719.003906.023438.003906.035156.039063-.273437-.046875-.558593-.257812-.765624l-.964844-.964844c-.179688-.179688-.410156-.269532-.644531-.269532zm-4.824219 4.449219c-.050781.050781-.089844.117188-.113281.195313l-.644531 2.253906c-.023438.085938-.023438.171875 0 .25 0-.003906 0-.003906 0-.003906l.644531-2.25c.023437-.078125.0625-.144532.113281-.199219l2.105469 2.105469c.058593-.027344.105469-.058594.148437-.101563zm0 0" fill="#d7d7d7" fill-opacity=".588235" fill-rule="evenodd"/><path d="m18.964844 13.566406c-.023438.195313-.109375.382813-.257813.53125l-3.699219 3.699219-2.136718-2.140625-.113282.117188 2.25 2.25 3.699219-3.699219c.207031-.207031.292969-.488281.257813-.757813zm-4.574219 4.804688c-.019531.007812-.039063.015625-.0625.023437l-2.25.640625c-.257813.074219-.503906-.089844-.566406-.320312-.085938.335937.226562.644531.566406.546875l2.25-.640625c.078125-.023438.144531-.0625.199219-.117188zm0 0" fill-opacity=".235294"/><g fill="none" stroke="#212121" stroke-linecap="round" stroke-linejoin="round" stroke-width="3" transform="matrix(.0429729 0 0 .0429729 0 9.239163)"><path d="m412.869664 65.973168c-8.271938-8.271937-21.634298-8.271937-29.906235 0l-74.901938 74.811038-11.180751 11.271651 52.358637 52.358636 86.082688-86.082688c8.271938-8.271938 8.271938-21.634298 0-29.906235zm0 0"/><path d="m285.609089 163.236607c-1.181705 1.181706-2.090709 2.727013-2.636112 4.545021l-14.998567 52.449537c-2.272511 7.908335 5.090423 15.362169 13.089659 12.998758l52.358636-14.907667c1.818008-.545402 3.363315-1.454406 4.635921-2.727012zm0 0"/></g></svg>

<?xml version="1.0" encoding="UTF-8"?>
<svg xmlns="http://www.w3.org/2000/svg" xmlns:xlink="http://www.w3.org/1999/xlink" width="22px" height="22px" viewBox="0 0 22 22" version="1.1">
<defs>
<linearGradient id="linear0" gradientUnits="userSpaceOnUse" x1="254" y1="233.5" x2="254" y2="254.666672" gradientTransform="matrix(0.0429729,0,0,0.0429729,-0.00000262285,9.239165)">
<stop offset="0" style="stop-color:rgb(0%,0%,0%);stop-opacity:0.27451;"/>
<stop offset="1" style="stop-color:rgb(0%,0%,0%);stop-opacity:0;"/>
</linearGradient>
<radialGradient id="radial0" gradientUnits="userSpaceOnUse" cx="450.908936" cy="189.579361" fx="450.908936" fy="189.579361" r="21.166656" gradientTransform="matrix(0.000000119742,-0.0537161,-0.0966889,-0.0000000698078,33.565844,43.721791)">
<stop offset="0" style="stop-color:rgb(0%,0%,0%);stop-opacity:0.313726;"/>
<stop offset="0.222222" style="stop-color:rgb(0%,0%,0%);stop-opacity:0.27451;"/>
<stop offset="1" style="stop-color:rgb(0%,0%,0%);stop-opacity:0;"/>
</radialGradient>
<radialGradient id="radial1" gradientUnits="userSpaceOnUse" cx="450.908936" cy="189.579361" fx="450.908936" fy="189.579361" r="21.166656" gradientTransform="matrix(-0.000000119742,0.0537161,0.0966889,0.0000000698078,-12.190429,-5.175142)">
<stop offset="0" style="stop-color:rgb(0%,0%,0%);stop-opacity:0.313726;"/>
<stop offset="0.222222" style="stop-color:rgb(0%,0%,0%);stop-opacity:0.27451;"/>
<stop offset="1" style="stop-color:rgb(0%,0%,0%);stop-opacity:0;"/>
</radialGradient>
<radialGradient id="radial2" gradientUnits="userSpaceOnUse" cx="450.908936" cy="189.579361" fx="450.908936" fy="189.579361" r="21.166656" gradientTransform="matrix(-0.000000119742,-0.0537161,0.0966889,-0.0000000698078,-12.190429,43.721791)">
<stop offset="0" style="stop-color:rgb(0%,0%,0%);stop-opacity:0.313726;"/>
<stop offset="0.222222" style="stop-color:rgb(0%,0%,0%);stop-opacity:0.27451;"/>
<stop offset="1" style="stop-color:rgb(0%,0%,0%);stop-opacity:0;"/>
</radialGradient>
<radialGradient id="radial3" gradientUnits="userSpaceOnUse" cx="450.908936" cy="189.579361" fx="450.908936" fy="189.579361" r="21.166656" gradientTransform="matrix(0.000000119742,0.0537161,-0.0966889,0.0000000698078,33.565842,-5.175142)">
<stop offset="0" style="stop-color:rgb(0%,0%,0%);stop-opacity:0.313726;"/>
<stop offset="0.222222" style="stop-color:rgb(0%,0%,0%);stop-opacity:0.27451;"/>
<stop offset="1" style="stop-color:rgb(0%,0%,0%);stop-opacity:0;"/>
</radialGradient>
<linearGradient id="linear1" gradientUnits="userSpaceOnUse" x1="940" y1="1695.118164" x2="940" y2="175.118118" gradientTransform="matrix(0.0113699,0,0,0.0113699,0,0)">
<stop offset="0" style="stop-color:rgb(38.039216%,38.039216%,38.039216%);stop-opacity:1;"/>
<stop offset="1" style="stop-color:rgb(45.882353%,45.882353%,45.882353%);stop-opacity:1;"/>
</linearGradient>
<linearGradient id="linear2" gradientUnits="userSpaceOnUse" x1="940" y1="1695.118164" x2="940" y2="175.118118" gradientTransform="matrix(0.0113699,0,0,0.0113699,0,0)">
<stop offset="0" style="stop-color:rgb(100%,65.490198%,14.901961%);stop-opacity:1;"/>
<stop offset="1" style="stop-color:rgb(100%,71.764708%,30.19608%);stop-opacity:1;"/>
</linearGradient>
<linearGradient id="linear3" gradientUnits="userSpaceOnUse" x1="1157.781738" y1="1072.898926" x2="614.728943" y2="504.996185" gradientTransform="matrix(0.00803973,0.00803973,-0.00803973,0.00803973,14.325834,1.339245)">
<stop offset="0" style="stop-color:rgb(100%,65.490198%,14.901961%);stop-opacity:1;"/>
<stop offset="1" style="stop-color:rgb(100%,71.764708%,30.19608%);stop-opacity:1;"/>
</linearGradient>
</defs>
<g id="surface1">
<path style=" stroke:none;fill-rule:nonzero;fill:url(#linear0);" d="M 5.914062 19.273438 L 15.464844 19.273438 L 15.464844 20.183594 L 5.914062 20.183594 Z M 5.914062 19.273438 "/>
<path style=" stroke:none;fill-rule:nonzero;fill:url(#radial0);" d="M 15.464844 19.273438 L 17.28125 19.273438 L 17.28125 18.363281 L 15.464844 18.363281 Z M 15.464844 19.273438 "/>
<path style=" stroke:none;fill-rule:nonzero;fill:url(#radial1);" d="M 5.914062 19.273438 L 4.09375 19.273438 L 4.09375 20.183594 L 5.914062 20.183594 Z M 5.914062 19.273438 "/>
<path style=" stroke:none;fill-rule:nonzero;fill:url(#radial2);" d="M 5.914062 19.273438 L 4.09375 19.273438 L 4.09375 18.363281 L 5.914062 18.363281 Z M 5.914062 19.273438 "/>
<path style=" stroke:none;fill-rule:nonzero;fill:url(#radial3);" d="M 15.464844 19.273438 L 17.28125 19.273438 L 17.28125 20.183594 L 15.464844 20.183594 Z M 15.464844 19.273438 "/>
<path style=" stroke:none;fill-rule:nonzero;fill:url(#linear1);" d="M 5.003906 1.992188 C 4.5 1.992188 4.09375 2.398438 4.09375 2.902344 L 4.09375 18.363281 C 4.09375 18.867188 4.5 19.273438 5.003906 19.273438 L 16.371094 19.273438 C 16.875 19.273438 17.28125 18.867188 17.28125 18.363281 L 17.28125 6.085938 L 13.1875 1.992188 Z M 14.097656 1.992188 L 17.28125 5.175781 L 17.28125 2.902344 C 17.28125 2.398438 16.875 1.992188 16.371094 1.992188 Z M 14.097656 1.992188 "/>
<path style=" stroke:none;fill-rule:nonzero;fill:url(#linear2);" d="M 14.097656 1.992188 L 17.28125 5.175781 L 17.28125 2.902344 C 17.28125 2.398438 16.875 1.992188 16.371094 1.992188 Z M 14.097656 1.992188 "/>
<path style=" stroke:none;fill-rule:nonzero;fill:rgb(100%,100%,100%);fill-opacity:0.392157;" d="M 5.003906 1.992188 C 4.5 1.992188 4.09375 2.398438 4.09375 2.902344 L 4.09375 3.128906 C 4.09375 2.625 4.5 2.21875 5.003906 2.21875 L 13.1875 2.21875 L 17.28125 6.3125 L 17.28125 6.085938 L 13.1875 1.992188 Z M 14.097656 1.992188 L 14.324219 2.21875 L 16.371094 2.21875 C 16.875 2.21875 17.28125 2.625 17.28125 3.128906 L 17.28125 2.902344 C 17.28125 2.398438 16.875 1.992188 16.371094 1.992188 Z M 14.097656 1.992188 "/>
<path style=" stroke:none;fill-rule:nonzero;fill:rgb(0%,0%,0%);fill-opacity:0.235294;" d="M 14.097656 1.992188 L 17.28125 5.175781 L 17.28125 4.835938 L 14.4375 1.992188 Z M 4.09375 18.027344 L 4.09375 18.363281 C 4.09375 18.867188 4.5 19.273438 5.003906 19.273438 L 16.371094 19.273438 C 16.875 19.273438 17.28125 18.867188 17.28125 18.363281 L 17.28125 18.027344 C 17.28125 18.53125 16.875 18.9375 16.371094 18.9375 L 5.003906 18.9375 C 4.5 18.9375 4.09375 18.53125 4.09375 18.027344 Z M 4.09375 18.027344 "/>
<path style=" stroke:none;fill-rule:nonzero;fill:rgb(12.941177%,12.941177%,12.941177%);fill-opacity:1;" d="M 5.003906 1.925781 C 4.464844 1.925781 4.027344 2.363281 4.027344 2.902344 L 4.027344 18.363281 C 4.027344 18.902344 4.464844 19.335938 5.003906 19.335938 L 16.371094 19.335938 C 16.910156 19.335938 17.347656 18.902344 17.347656 18.363281 L 17.347656 6.085938 C 17.347656 6.066406 17.339844 6.050781 17.328125 6.039062 L 13.234375 1.945312 C 13.222656 1.933594 13.207031 1.925781 13.1875 1.925781 Z M 14.097656 1.925781 C 14.074219 1.925781 14.050781 1.941406 14.039062 1.964844 C 14.027344 1.992188 14.035156 2.019531 14.054688 2.035156 L 17.238281 5.21875 C 17.253906 5.238281 17.28125 5.246094 17.308594 5.234375 C 17.332031 5.222656 17.347656 5.199219 17.347656 5.175781 L 17.347656 2.902344 C 17.347656 2.363281 16.910156 1.925781 16.371094 1.925781 Z M 5.003906 2.054688 L 13.164062 2.054688 L 17.21875 6.109375 L 17.21875 18.363281 C 17.21875 18.832031 16.84375 19.207031 16.371094 19.207031 L 5.003906 19.207031 C 4.535156 19.207031 4.15625 18.832031 4.15625 18.363281 L 4.15625 2.902344 C 4.15625 2.429688 4.535156 2.054688 5.003906 2.054688 Z M 14.253906 2.054688 L 16.371094 2.054688 C 16.84375 2.054688 17.21875 2.429688 17.21875 2.902344 L 17.21875 5.019531 Z M 14.253906 2.054688 "/>
<path style=" stroke:none;fill-rule:nonzero;fill:url(#linear3);" d="M 17.097656 11.804688 C 16.867188 11.804688 16.632812 11.894531 16.457031 12.074219 L 13.238281 15.289062 L 12.757812 15.773438 L 15.007812 18.023438 L 18.707031 14.324219 C 19.0625 13.96875 19.0625 13.394531 18.707031 13.039062 L 17.742188 12.074219 C 17.5625 11.894531 17.332031 11.804688 17.097656 11.804688 Z M 12.273438 16.253906 C 12.222656 16.304688 12.183594 16.371094 12.160156 16.449219 L 11.515625 18.703125 C 11.417969 19.042969 11.734375 19.363281 12.078125 19.261719 L 14.328125 18.621094 C 14.40625 18.597656 14.472656 18.558594 14.527344 18.503906 Z M 12.273438 16.253906 "/>
<path style=" stroke:none;fill-rule:evenodd;fill:rgb(84.313726%,84.313726%,84.313726%);fill-opacity:0.588235;" d="M 17.074219 11.820312 C 16.84375 11.820312 16.609375 11.910156 16.433594 12.089844 L 13.214844 15.304688 L 12.734375 15.789062 L 12.859375 15.910156 L 13.214844 15.550781 L 16.433594 12.335938 C 16.445312 12.324219 16.453125 12.3125 16.464844 12.304688 C 16.476562 12.292969 16.488281 12.285156 16.5 12.273438 C 16.519531 12.257812 16.539062 12.246094 16.558594 12.230469 C 16.574219 12.21875 16.59375 12.207031 16.613281 12.195312 C 16.640625 12.179688 16.667969 12.167969 16.691406 12.152344 C 16.789062 12.109375 16.886719 12.082031 16.988281 12.074219 C 17.019531 12.070312 17.046875 12.070312 17.074219 12.070312 C 17.105469 12.070312 17.132812 12.070312 17.164062 12.074219 C 17.265625 12.082031 17.363281 12.109375 17.457031 12.152344 C 17.484375 12.167969 17.511719 12.179688 17.539062 12.195312 C 17.558594 12.207031 17.574219 12.21875 17.59375 12.230469 C 17.613281 12.246094 17.632812 12.257812 17.648438 12.273438 C 17.660156 12.285156 17.671875 12.292969 17.683594 12.304688 C 17.695312 12.3125 17.707031 12.324219 17.71875 12.335938 L 18.683594 13.300781 C 18.691406 13.308594 18.699219 13.316406 18.707031 13.328125 C 18.710938 13.328125 18.710938 13.332031 18.714844 13.335938 C 18.722656 13.339844 18.726562 13.347656 18.730469 13.351562 C 18.734375 13.355469 18.738281 13.359375 18.738281 13.363281 C 18.746094 13.367188 18.75 13.375 18.757812 13.382812 C 18.757812 13.382812 18.757812 13.386719 18.761719 13.386719 C 18.769531 13.398438 18.773438 13.40625 18.78125 13.414062 C 18.78125 13.417969 18.785156 13.417969 18.785156 13.421875 C 18.789062 13.429688 18.796875 13.4375 18.800781 13.445312 C 18.800781 13.445312 18.804688 13.449219 18.804688 13.453125 C 18.8125 13.460938 18.816406 13.46875 18.820312 13.476562 C 18.820312 13.476562 18.824219 13.480469 18.824219 13.480469 C 18.828125 13.492188 18.835938 13.5 18.839844 13.511719 C 18.847656 13.523438 18.851562 13.53125 18.855469 13.542969 C 18.859375 13.542969 18.859375 13.546875 18.859375 13.546875 C 18.863281 13.558594 18.867188 13.566406 18.871094 13.574219 C 18.871094 13.574219 18.875 13.578125 18.875 13.582031 C 18.878906 13.589844 18.882812 13.601562 18.886719 13.609375 C 18.890625 13.621094 18.894531 13.632812 18.898438 13.644531 C 18.902344 13.65625 18.90625 13.667969 18.910156 13.679688 C 18.914062 13.691406 18.917969 13.703125 18.921875 13.714844 C 18.925781 13.738281 18.933594 13.761719 18.9375 13.785156 C 18.9375 13.796875 18.941406 13.808594 18.941406 13.820312 C 18.980469 13.546875 18.894531 13.261719 18.683594 13.054688 L 17.71875 12.089844 C 17.539062 11.910156 17.308594 11.820312 17.074219 11.820312 Z M 12.25 16.269531 C 12.199219 16.320312 12.160156 16.386719 12.136719 16.464844 L 11.492188 18.71875 C 11.46875 18.804688 11.46875 18.890625 11.492188 18.96875 C 11.492188 18.964844 11.492188 18.964844 11.492188 18.964844 L 12.136719 16.714844 C 12.160156 16.636719 12.199219 16.570312 12.25 16.515625 L 14.355469 18.621094 C 14.414062 18.59375 14.460938 18.5625 14.503906 18.519531 Z M 12.25 16.269531 "/>
<path style=" stroke:none;fill-rule:nonzero;fill:rgb(0%,0%,0%);fill-opacity:0.235294;" d="M 18.964844 13.566406 C 18.941406 13.761719 18.855469 13.949219 18.707031 14.097656 L 15.007812 17.796875 L 12.871094 15.65625 L 12.757812 15.773438 L 15.007812 18.023438 L 18.707031 14.324219 C 18.914062 14.117188 19 13.835938 18.964844 13.566406 Z M 14.390625 18.371094 C 14.371094 18.378906 14.351562 18.386719 14.328125 18.394531 L 12.078125 19.035156 C 11.820312 19.109375 11.574219 18.945312 11.511719 18.714844 C 11.425781 19.050781 11.738281 19.359375 12.078125 19.261719 L 14.328125 18.621094 C 14.40625 18.597656 14.472656 18.558594 14.527344 18.503906 Z M 14.390625 18.371094 "/>
<path style="fill:none;stroke-width:3;stroke-linecap:round;stroke-linejoin:round;stroke:rgb(12.941177%,12.941177%,12.941177%);stroke-opacity:1;stroke-miterlimit:4;" d="M 412.869664 65.973168 C 404.597726 57.701231 391.235366 57.701231 382.963429 65.973168 L 308.061491 140.784206 L 296.88074 152.055857 L 349.239377 204.414493 L 435.322065 118.331805 C 443.594003 110.059867 443.594003 96.697507 435.322065 88.42557 Z M 412.869664 65.973168 " transform="matrix(0.0429729,0,0,0.0429729,0,9.239163)"/>
<path style="fill:none;stroke-width:3;stroke-linecap:round;stroke-linejoin:round;stroke:rgb(12.941177%,12.941177%,12.941177%);stroke-opacity:1;stroke-miterlimit:4;" d="M 285.609089 163.236607 C 284.427384 164.418313 283.51838 165.96362 282.972977 167.781628 L 267.97441 220.231165 C 265.701899 228.1395 273.064833 235.593334 281.064069 233.229923 L 333.422705 218.322256 C 335.240713 217.776854 336.78602 216.86785 338.058626 215.595244 Z M 285.609089 163.236607 " transform="matrix(0.0429729,0,0,0.0429729,0,9.239163)"/>
</g>
</svg>
